X:481
T: MAEDEL SCHAU MIR INS GESICHT
N: F0909
O: Europa, Mitteleuropa, Deutschland
R: Liebes - Lied
M: 2/4
L: 1/16
K: A
e3c | A2A2B2Bc | A4
e3c | A2A2B2Bc | A4
GABc | d2B2c2A2 | B2E2
GABc | d2B2c2A2 | B2E2
c3d | e2e2c3d | e4
(3f2d2B2 | (3e2c2A2(3d2B2G2 | A4

@@@ Tune index: 5912
